optimized/20/solid/shield-exclamation.svg

<svg xmlns="http://www.w3.org/2000/svg" viewBox="0 0 20 20">
  <path fill-rule="evenodd" d="M10.3389 2.23681C10.1429 2.07406 9.85709 2.07406 9.66109 2.23681C7.72231 3.84667 5.2685 4.85772 2.58337 4.98625C2.34202 4.99781 2.13593 5.17213 2.10424 5.41168C2.03548 5.9315 2 6.46181 2 7.00041C2 12.163 5.26004 16.5641 9.83378 18.2574C9.94102 18.2971 10.0593 18.2971 10.1665 18.2574C14.7401 16.564 18 12.163 18 7.00053C18 6.46188 17.9645 5.93153 17.8957 5.41168C17.8641 5.17213 17.658 4.99781 17.4166 4.98625C14.7315 4.85772 12.2777 3.84667 10.3389 2.23681ZM10 6.00018C10.4142 6.00018 10.75 6.33597 10.75 6.75018V10.2502C10.75 10.6644 10.4142 11.0002 10 11.0002C9.58579 11.0002 9.25 10.6644 9.25 10.2502L9.25 6.75018C9.25 6.33597 9.58579 6.00018 10 6.00018ZM10 15.0002C10.5523 15.0002 11 14.5525 11 14.0002C11 13.4479 10.5523 13.0002 10 13.0002C9.44772 13.0002 9 13.4479 9 14.0002C9 14.5525 9.44772 15.0002 10 15.0002Z" clip-rule="evenodd"/>
</svg>

<svg xmlns="http://www.w3.org/2000/svg" viewBox="0 0 20 20" fill="currentColor" aria-hidden="true">
  <path fill-rule="evenodd" d="M10.339 2.237a.532.532 0 00-.678 0 11.947 11.947 0 01-7.078 2.75.5.5 0 00-.479.425A12.11 12.11 0 002 7c0 5.163 3.26 9.564 7.834 11.257a.48.48 0 00.332 0C14.74 16.564 18 12.163 18 7.001c0-.54-.035-1.07-.104-1.59a.5.5 0 00-.48-.425 11.947 11.947 0 01-7.077-2.75zM10 6a.75.75 0 01.75.75v3.5a.75.75 0 01-1.5 0v-3.5A.75.75 0 0110 6zm0 9a1 1 0 100-2 1 1 0 000 2z" clip-rule="evenodd"/>
</svg>
